X: 2
T: The Humours Of Kiltyclogher
R: jig
M: 6/8
L: 1/8
K: Cmaj
AGE G2E|c2E- EGE|DED D2E|GED D2D|
AGE G2E|c2E DEG|A2d BAG|A3 A2B:|
|:c2B c2d|ecA ABc|BAG GAB|dBG GAB|
c2B c2d|ecA ABc|BAG GAB|A3 A2B:|


Tune 1043	Setting 22934

